X:1160
T:Black Nagg.
C:John Malchair's Third Collection of Tunes
F:https://www.vwml.org/record/Malchair/3619/p116
F:www.vwml.org/topics/historic-dance-and-tune-books/Malchair
Z:Eric Conrad Feb 2020
N:NB1 Repeats added.
N:NB2 Tempo added.
N:NB3 Initial pickup note added.
N:NB4 The sixteenth notes (eighth notes in MS) were not beamed in the MS.
W:Ed.1665.  See Coll.2d.p.36 for Galloping Nagg.
M:6/8   % MS has time signature "3", barring as in 6/4
L:1/8   % same barring, but notes halved in length
Q:3/8=120       % tempo modernized
K:Ddor
P:A
|: "_NB1,2,3"d | d>ed e>de | f3 f2g | "_NB4"a>gf/e/ fe2 | d3 d2 :|
P:B
|: d | ecA ecA | ecA ecA | afd afd | afd afd |
ecA ecA | ecA "_NB4"e2f/g/ | "_NB4"a>gf/e/ fe2 | d3- d2 :|


